assets/img/braze_icons/help-circle.svg

<svg fill="none" height="24" viewBox="0 0 24 24" width="24" xmlns="http://www.w3.org/2000/svg"><path clip-rule="evenodd" d="m12 1c-6.07513 0-11 4.92487-11 11 0 6.0751 4.92487 11 11 11 6.0751 0 11-4.9249 11-11 0-6.07513-4.9249-11-11-11zm-1.0934 7.27123c.4072-.23932.886-.3268 1.3515-.24695s.8878.32187 1.1919.68321c.3042.36134.4707.81866.47 1.29098v.00149c0 .46914-.3651.95824-1.0547 1.41794-.3144.2096-.6359.371-.8827.4807-.122.0543-.2223.0943-.2897.12-.0299.0114-.06.0224-.0902.033-.5233.1751-.8059.741-.6314 1.2646.1747.5239.741.8071 1.2649.6324l.1687-.061c.0966-.0368.2307-.0905.39-.1613.3156-.1403.7442-.3539 1.1798-.6443.8102-.5401 1.9448-1.5508 1.9453-3.0811.0013-.94446-.3317-1.85889-.9399-2.58141-.6084-.72267-1.4528-1.20672-2.3839-1.36642-.931-.1597-1.8885.01526-2.70293.49389-.81441.47863-1.43314 1.23005-1.74661 2.12116-.18327.52099.0905 1.0919.61149 1.27518.52099.1833 1.09191-.09051 1.27515-.61149.1568-.44556.4661-.82127.8733-1.06058zm1.0934 7.72877c-.5523 0-1 .4477-1 1 0 .5522.4477 1 1 1h.01c.5523 0 1-.4478 1-1 0-.5523-.4477-1-1-1z" fill="#801ed7" fill-rule="evenodd"/></svg>

<svg width="24" height="24" viewBox="0 0 24 24" fill="none" xmlns="http://www.w3.org/2000/svg">
<path fill-rule="evenodd" clip-rule="evenodd" d="M12 1C5.92487 1 1 5.92487 1 12C1 18.0751 5.92487 23 12 23C18.0751 23 23 18.0751 23 12C23 5.92487 18.0751 1 12 1ZM10.9066 8.27123C11.3138 8.03191 11.7926 7.94443 12.2581 8.02428C12.7236 8.10413 13.1459 8.34615 13.45 8.70749C13.7542 9.06883 13.9207 9.52615 13.92 9.99847L13.92 9.99996C13.92 10.4691 13.5549 10.9582 12.8653 11.4179C12.5509 11.6275 12.2294 11.7889 11.9826 11.8986C11.8606 11.9529 11.7603 11.9929 11.6929 12.0186C11.663 12.03 11.6329 12.041 11.6027 12.0516C11.0794 12.2267 10.7968 12.7926 10.9713 13.3162C11.146 13.8401 11.7123 14.1233 12.2362 13.9486L12.4049 13.8876C12.5015 13.8508 12.6356 13.7971 12.7949 13.7263C13.1105 13.586 13.5391 13.3724 13.9747 13.082C14.7849 12.5419 15.9195 11.5312 15.92 10.0009C15.9213 9.05644 15.5883 8.14201 14.9801 7.41949C14.3717 6.69682 13.5273 6.21277 12.5962 6.05307C11.6652 5.89337 10.7077 6.06833 9.89327 6.54696C9.07886 7.02559 8.46013 7.77701 8.14666 8.66812C7.96339 9.18911 8.23716 9.76002 8.75815 9.9433C9.27914 10.1266 9.85006 9.85279 10.0333 9.33181C10.1901 8.88625 10.4994 8.51054 10.9066 8.27123ZM12 16C11.4477 16 11 16.4477 11 17C11 17.5522 11.4477 18 12 18H12.01C12.5623 18 13.01 17.5522 13.01 17C13.01 16.4477 12.5623 16 12.01 16H12Z" fill="#801ED7"/>
</svg>
